!!!!SEGMENT: pl-kk--kk-i-15--013_anonim-exultate-gaudete.krn
!!!id: 16xx:1130
!!!COM: Anonim
!!!OTL: Exultate gaudete
!!!PDT:
!!!SMS-siglum: PL-Kk
!!!SMS-shelfmark: Kk.I.15
!!!NIFC-rismID: 1001147283
!!!URL-scan: http://repozytorium.nifc.pl/skany/pl-kk-nut--i-15
!!!ONB-nifc: UWAGA: C (skan 0009), A (skan 0027), T (skan 0044), B (skan 0062). Następny motet: Haec dies
!!!SMS-variant:
!!!SMS-altvar:
**kern	**text	**text	**kern	**text	**text	**kern	**text	**text	**kern	**text	**text
*part4	*part4	*part4	*part3	*part3	*part3	*part2	*part2	*part2	*part1	*part1	*part1
*staff4	*staff4	*staff4	*staff3	*staff3	*staff3	*staff2	*staff2	*staff2	*staff1	*staff1	*staff1
*I"Baſso	*	*	*I"Tenore.	*	*	*I"Alto	*	*	*I"Canto.	*	*
*I'B	*	*	*I'T	*	*	*I'A	*	*	*I'S	*	*
*clefC1	*	*	*clefF4	*	*	*clefC4	*	*	*clefC3	*	*
*ITrd8c12	*	*	*	*	*	*	*	*	*	*	*
*k[b-]	*	*	*k[b-e-]	*	*	*k[b-]	*	*	*k[b-]	*	*
*M3/2	*	*	*M3/2	*	*	*M3/2	*	*	*M3/2	*	*
*>[A,B,A]	*	*	*>[A,B,A]	*	*	*>[A,B,A]	*	*	*>[A,B,A]	*	*
=1	=1	=1	=1	=1	=1	=1	=1	=1	=1	=1	=1
*>A	*	*	*>A	*	*	*>A	*	*	*>A	*	*
*all\right	*	*	*all\right	*	*	*all\right	*	*	*all\right	*	*
!LO:TX:a:t=P:problem:partia basu zapisana w kluczu C1, przetransponowano oktawę w dół	!	!	!LO:TX:t=P:problem:znaki BB- E- B-	!	!	!	!	!	!	!	!
2r	.	.	2r	.	.	2rd	.	.	2r	.	.
*2\right	*	*	*2\right	*	*	*2\right	*	*	*2\right	*	*
!	!	!	!LO:SIC:v:s=2c	!	!	!	!	!	!	!	!
2c\	E-	.	2c-\	e-	.	2e-X\	e-	.	2g\	e-	.
!	!	!	!LO:SIC:v:s=2c	!	!	!	!	!	!	!	!
2G/	-xul-	.	2c-\	-xul-	.	2e-\	-xul-	.	2g\	-xul-	.
=2	=2	=2	=2	=2	=2	=2	=2	=2	=2	=2	=2
!LO:N:acc=#	!	!	!LO:N:acc=#	!	!	!	!	!	!	!	!
2Bn\	-ta-	.	2Bn\	-ta-	.	2d\	-ta-	.	2g\	-ta-	.
2B\	-te	.	2B\	-te	.	2d\	-te	.	2g\	-te	.
2d\	gau-	.	2B\	gau-	.	2d\	gau-	.	2g\	gau-	.
=3-	=3	=3	=3-	=3	=3	=3	=3	=3	=3-	=3	=3
*M4/4	*	*	*M4/4	*	*	*M4/4	*	*	*M4/4	*	*
*met(C.)	*	*	*met(C.)	*	*	*met(C.)	*	*	*met(C.)	*	*
4c\	-de-	.	4c\	-de-	.	4e-X\	-de-	.	4g\	-de-	.
4c\	-te	.	4c\	-te	.	4e-\	-te	.	4g\	-te	.
2B-X\	la-	.	2F\	la-	.	2c\	la-	.	2f\	la-	.
=4	=4	=4	=4	=4	=4	=4	=4	=4	=4	=4	=4
!	!	!	!	!	!	!LO:N:acc=#	!	!	!	!	!
2G/	-ti	.	2G\	-ti	.	2Bn\	-ti	.	2d\	-ti	.
2F/	om-	.	2A-X\	om-	.	2c\	om-	.	4.e-X\	om-	.
.	.	.	.	.	.	.	.	.	8f\	.	.
=5-	=5	=5	=5-	=5	=5	=5	=5	=5	=5	=5	=5
!	!	!	!	!	!	!LO:N:acc=#	!	!	!	!	!
1G	-nes	.	1G	-nes	.	1Bn	-nes	.	1d	-nes	.
=6	=6	=6	=6-	=6	=6	=6-	=6	=6	=6-	=6	=6
*M3/2	*	*	*M3/2	*	*	*M3/2	*	*	*M3/2	*	*
2B-\	Et	.	2E-X\	Et	.	2e-X\	Et	.	2g\	Et	.
2B-\	cae-	.	2E-\	cae-	.	2e-\	cae-	.	2g\	cae-	.
!	!	!	!	!	!	!	!	!	!LO:SIC:v:t=custos f	!	!
2B-\	-li	.	2E-\	-li	.	2e-\	-li	.	2g\	-li	.
!	!	!	!LO:LB:g=original	!	!	!	!	!	!LO:LB:g=original	!	!
=7	=7	=7	=7	=7	=7	=7	=7	=7	=7	=7	=7
1B-	ci-	.	1B-	ci-	.	1d	ci-	.	1f	ci-	.
!LO:SIC:v:t=custos B	!	!	!	!	!	!LO:SIC:v:t=custos e	!	!	!	!	!
2B-\	-ues	.	2G\	-ues	.	2d\	-ues	.	2g\	-ues	.
!LO:LB:g=original	!	!	!	!	!	!LO:LB:g=original	!	!	!	!	!
=8	=8	=8	=8	=8	=8	=8	=8	=8	=8	=8	=8
2.B-\	iu-	.	2.c\	iu-	.	2.e-X\	iu-	.	2.g\	iu-	.
4c\	-gi-	.	4B-\	-gi-	.	4d\	-gi-	.	4g\	-gi-	.
!	!	!	!	!	!	!	!	!	!LO:SIC:v:s=2a	!	!
2c\	-ter	.	2A\	-ter	.	2c\	-ter	.	2a-\	-ter	.
=9	=9	=9	=9	=9	=9	=9	=9	=9	=9	=9	=9
*col	*	*	*col	*	*	*	*	*	*col	*	*
2B-\	can-	.	2E-X\	can-	.	2e-X\	can-	.	2g\	can-	.
1B-	-ta-	.	1BB-	-ta-	.	(2.e-\	-ta-	.	1f	-ta-	.
.	.	.	.	.	.	4d\)	.	.	.	.	.
*Xcol	*	*	*Xcol	*	*	*	*	*	*Xcol	*	*
=10	=10	=10	=10-	=10	=10	=10	=10	=10	=10	=10	=10
!	!	!	!	!	!	!LO:TX:a:t=P:problem:rozdzielacz słów:global	!	!	!LO:TX:a:t=P:problem:rozdzielacz słów:global	!	!
1.G	-te	.	1.E-X	-te	.	1e-X,<	-te	.	1e-X,<	-te	.
.	.	.	.	.	.	2e-\	can-	.	2g\	can-	.
=11	=11	=11	=11	=11	=11	=11	=11	=11	=11	=11	=11
1.r	.	.	1.r	.	.	4d\	-ta-	.	4f\	-ta-	.
!	!	!	!	!	!	!	!	!	!LO:SIC:v:s=4e-	!	!
.	.	.	.	.	.	4c\	.	.	4e\	.	.
.	.	.	.	.	.	4d\	.	.	4f\	.	.
.	.	.	.	.	.	4B-\	.	.	4d\	.	.
!	!	!	!	!	!	!	!	!	!LO:SIC:v:s=4e-	!	!
.	.	.	.	.	.	4c\	.	.	4e\	.	.
.	.	.	.	.	.	4d\	.	.	4f\	.	.
=12-	=12	=12	=12-	=12	=12	=12	=12	=12	=12	=12	=12
!	!	!	!	!	!	!	!	!	!LO:SIC:v:s=4e-	!	!
2G/	et	.	2C/	et	.	4c\	.	.	4e\	.	.
!	!	!	!	!	!	!LO:N:acc=#	!	!	!	!	!
.	.	.	.	.	.	4Bn\	.	.	4d\	.	.
!	!	!	!	!	!	!	!	!	!LO:SIC:v:s=4e-	!	!
2G/	cae-	.	2C/	cae-	.	4c\	.	.	4e\	.	.
.	.	.	.	.	.	4A\	.	.	4c\	.	.
!	!	!	!	!	!	!LO:N:acc=#	!	!	!	!	!
2G/	-li	.	2C/	-li	.	4Bn\	.	.	4d\	.	.
!	!	!	!	!	!	!	!	!	!LO:SIC:v:s=4e-	!	!
.	.	.	.	.	.	4c\	.	.	4e\	.	.
=13	=13	=13	=13	=13	=13	=13	=13	=13	=13	=13	=13
!	!	!	!	!	!	!LO:N:acc=#	!	!	!	!	!
2G/	ci-	.	2G\	ci-	.	2Bn\	.	.	2d\	te	.
2G/	-ues	.	2G\	-ues	.	2B\	-te	.	2d\	can-	.
!	!	!	!	!	!	!	!	!	!LO:SIC:v:t=custos g	!	!
2d\	can-	.	2GG/	can-	.	2B\	can-	.	2g\	.	.
!	!	!	!	!	!	!	!	!	!LO:LB:g=original	!	!
=14	=14	=14	=14	=14	=14	=14-	=14	=14	=14	=14	=14
!	!	!	!	!	!	!LO:SIC:v:t=custos G	!	!	!	!	!
4e-X\	-ta-	.	4C/	-ta-	.	1.c	-ta-	.	[<1.g	-ta-	.
4d\	.	.	4D/	.	.	.	.	.	.	.	.
4c\	.	.	4E-X\	.	.	.	.	.	.	.	.
4A\	.	.	4F\	.	.	.	.	.	.	.	.
4B-\	.	.	4G\	.	.	.	.	.	.	.	.
!	!	!	!LO:SIC:v:t=custos B	!	!	!	!	!	!	!	!
4c\	.	.	4A\	.	.	.	.	.	.	.	.
!	!	!	!LO:LB:g=original	!	!	!LO:LB:g=original	!	!	!	!	!
=15	=15	=15	=15	=15	=15	=15	=15	=15	=15-	=15	=15
!	!	!	!LO:N:acc=#	!	!	!	!	!	!	!	!
4d\	.	.	4Bn\	.	.	1G	te	.	1.g]	.	.
4c\	.	.	4A\	.	.	.	.	.	.	.	.
4d\	.	.	4B\	.	.	.	.	.	.	.	.
!LO:N:acc=#	!	!	!	!	!	!	!	!	!	!	!
!LO:SIC:v:t=custos c	!	!	!	!	!	!	!	!	!	!	!
4Bn\	.	.	4G\	.	.	.	.	.	.	.	.
!LO:LB:g=original	!	!	!	!	!	!	!	!	!	!	!
4c\	.	.	4A\	.	.	2d\	can-	.	.	.	.
4d\	.	.	4B\	.	.	.	.	.	.	.	.
=16	=16	=16	=16	=16	=16	=16	=16	=16	=16	=16	=16
2e\	.	.	2c\	.	.	2c\	-ta-	.	1g,<	-te	.
2c\	-te	.	2c\	-te	.	2e-X\	-te	.	.	.	.
2c\	can-	.	2C/	can-	.	2e-\	can-	.	2g\	can-	.
=17	=17	=17	=17	=17	=17	=17	=17	=17	=17-	=17	=17
4A\	-ta-	.	1.D	-ta-	.	1.d	-ta-	.	4f#X\	-ta-	.
4G\	.	.	.	.	.	.	.	.	4e\	.	.
4A\	.	.	.	.	.	.	.	.	4f#\	.	.
4F#X/	.	.	.	.	.	.	.	.	4d\	.	.
4G/	.	.	.	.	.	.	.	.	4e\	.	.
!	!	!	!	!	!	!	!	!	!LO:TX:a:t=P:problem:# above	!	!
4A\	.	.	.	.	.	.	.	.	4f#X\	.	.
=18	=18	=18	=18	=18	=18	=18-	=18	=18	=18	=18	=18
2B-\	.	.	1GG	-te	.	1d,<	-te	.	2g\	.	.
2B-\	-te	.	.	.	.	.	.	.	2g\	-te	.
*	*ij	*	*	*	*	*	*	*	*	*ij	*
2d\	can-	.	2G\	can-	.	2B-\	can-	.	2G/	can-	.
=19	=19	=19	=19	=19	=19	=19	=19	=19	=19	=19	=19
1.A	-ta-	.	4F#X\	-ta-	.	4A/	-ta-	.	1.d	-ta-	.
.	.	.	4E-\	.	.	4G/	.	.	.	.	.
.	.	.	4F#\	.	.	4A/	.	.	.	.	.
.	.	.	4D\	.	.	4F#X/	.	.	.	.	.
.	.	.	4E-\	.	.	4G/	.	.	.	.	.
.	.	.	4F#X\	.	.	4A/	.	.	.	.	.
=20	=20	=20	=20	=20	=20	=20	=20	=20	=20	=20	=20
!LO:TX:a:t=P:problem:rozdzielacz słów:global	!	!	!	!	!	!	!	!	!	!	!
1G,<	-te	.	2G\	.	.	2B-\	.	.	1d	-te	.
*	*Xij	*	*	*	*	*	*	*	*	*Xij	*
.	.	.	2G\	-te	.	2B-,<\	-te	.	.	.	.
*	*	*	*	*ij	*	*	*ij	*	*	*	*
2B-\	can-	.	2GG/	can-	.	2d\	can-	.	2g\	can-	.
=21	=21	=21	=21	=21	=21	=21	=21	=21	=21	=21	=21
4A\	-ta-	.	1.D	-ta-	.	1.d	-ta-	.	4f#X\	-ta-	.
4G\	.	.	.	.	.	.	.	.	4e\	.	.
4A\	.	.	.	.	.	.	.	.	4f#\	.	.
4F#X/	.	.	.	.	.	.	.	.	4d\	.	.
4G/	.	.	.	.	.	.	.	.	4e\	.	.
!LO:SIC:v:t=custos b	!	!	!	!	!	!	!	!	!LO:SIC:v:t=custos g	!	!
!	!	!	!	!	!	!	!	!	!LO:TX:a:t=P:problem:# above	!	!
4A\	.	.	.	.	.	.	.	.	4f#X\	.	.
!LO:LB:g=original	!	!	!	!	!	!	!	!	!LO:LB:g=original	!	!
=22	=22	=22	=22	=22	=22	=22	=22	=22	=22	=22	=22
!	!	!	!LO:SIC:v:t=custos e	!	!	!	!	!	!	!	!
1B-	.	.	1.GG	-te	.	1.d	-te	.	1g	.	.
*	*	*	*	*Xij	*	*	*Xij	*	*	*	*
2B-\	-te	.	.	.	.	.	.	.	2g\	-te	.
!	!	!	!LO:LB:g=original	!	!	!	!	!	!	!	!
=23	=23	=23	=23	=23	=23	=23	=23	=23	=23	=23	=23
2B-\	et	.	2E-X\	et	.	2e-X\	et	.	2g\	et	.
2B-\	cae-	.	2E-\	cae-	.	2e-\	cae-	.	2g\	cae-	.
!	!	!	!	!	!	!LO:SIC:v:t=custos d	!	!	!	!	!
2B-\	-li	.	2E-\	-li	.	2e-\	-li	.	2g\	-li	.
!	!	!	!	!	!	!LO:LB:g=original	!	!	!	!	!
=24	=24	=24	=24	=24	=24	=24-	=24	=24	=24	=24	=24
1B-	ci-	.	1B-	ci-	.	1d	ci-	.	1f	ci-	.
2B-\	-ues	.	2G\	-ues	.	2B-\	-ues	.	2g\	-ues	.
=25	=25	=25	=25	=25	=25	=25	=25	=25	=25	=25	=25
2.A-X\	iu-	.	2.A-X\	iu-	.	2.c\	iu-	.	2.e-X\	iu-	.
4B-\	-gi-	.	4G\	-gi-	.	4B-\	-gi-	.	4e-\	-gi-	.
2c\	-ter	.	2F\	-ter	.	2A/	-ter	.	2f\	-ter	.
=26	=26	=26	=26	=26	=26	=26	=26	=26	=26	=26	=26
*col	*	*	*col	*	*	*col	*	*	*col	*	*
2c\	can-	.	2C/	can-	.	2G/	can-	.	2e-X\	con-	.
1B-	-ta-	.	1GG	-ta-	.	1G	-ta-	.	1d	-ta-	.
*Xcol	*	*	*Xcol	*	*	*Xcol	*	*	*Xcol	*	*
=27-	=27	=27	=27-	=27	=27	=27-	=27	=27	=27-	=27	=27
*M4/4	*	*	*M4/4	*	*	*M4/4	*	*	*M4/4	*	*
*met(C.)	*	*	*met(C.)	*	*	*met(C.)	*	*	*met(C.)	*	*
2c,<\	-te,	.	1C	-te	.	1F	-te	.	1c	-te	.
4r	.	.	.	.	.	.	.	.	.	.	.
8c\	et	.	.	.	.	.	.	.	.	.	.
8c\	tu	.	.	.	.	.	.	.	.	.	.
=28	=28	=28	=28	=28	=28	=28	=28	=28	=28	=28	=28
*>B	*	*	*>B	*	*	*>B	*	*	*>B	*	*
!LO:N:acc=#	!	!	!	!	!	!	!	!	!	!	!
8Bn\	fe-	.	1r	.	.	2r	.	.	4r	.	.
8G/	-lix	.	.	.	.	.	.	.	.	.	.
!LO:LB:g=original	!	!	!	!	!	!	!	!	!	!	!
!LO:N:acc=#	!	!	!	!	!	!	!	!	!	!	!
8Bn\	gau-	.	.	.	.	.	.	.	8g\	Et	.
8B\	-de	.	.	.	.	.	.	.	8g\	tu	.
2c\	Ro-	.	.	.	.	4r	.	.	8e-X\	fe-	.
!	!	!	!	!	!	!	!	!	!LO:SIC:v:t=custos e-	!	!
.	.	.	.	.	.	.	.	.	8c/	lix	.
!	!	!	!	!	!	!	!	!	!LO:LB:g=original	!	!
.	.	.	.	.	.	8c\	Et	.	8e-X\	gau-	.
.	.	.	.	.	.	8c\	Tu	.	8f\	-de	.
=29	=29	=29	=29	=29	=29	=29	=29	=29	=29	=29	=29
!	!	!	!	!	!	!LO:N:acc=#	!	!	!	!	!
4d\	-ma	.	4r	.	.	8Bn\	fe-	.	2d\	Ro-	.
.	.	.	.	.	.	8G/	-lix	.	.	.	.
*	*ij	*	*	*	*	*	*	*	*	*	*
!	!	!	!	!	!	!LO:N:acc=#	!	!	!	!	!
8d\	et	.	8G\	Et	.	8Bn\	gau-	.	.	.	.
8d\	tu	.	8G\	tu	.	8B\	-de	.	.	.	.
8e-X\	fe-	.	8E-X\	fe-	.	4c\	Ro-	.	4c/	-ma	.
!	!	!	!LO:SIC:v:t=custos E-	!	!	!	!	!	!	!	!
8c\	-lix	.	8C/	-lix	.	.	.	.	.	.	.
!	!	!	!LO:LB:g=original	!	!	!	!	!	!	!	!
*	*	*	*	*	*	*	*	*	*	*ij	*
8e-\	gau-	.	8E-X\	gau-	.	4G,</	-ma	.	8g\	Et	.
8c\	-de	.	8E-\	-de	.	.	.	.	8g\	tu	.
=30	=30	=30	=30	=30	=30	=30	=30	=30	=30	=30	=30
*	*	*	*	*	*	*	*ij	*	*	*	*
8d\L	Ro-	.	2D/	Ro-	.	4.d\	Et	.	8f\	fe-	.
16c\L	.	.	.	.	.	.	.	.	8d\	-lix	.
16d\JJ	.	.	.	.	.	.	.	.	.	.	.
4.B-\	.	.	.	.	.	.	.	.	8f\	gau-	.
!	!	!	!	!	!	!LO:SIC:v:t=custos e	!	!	!	!	!
.	.	.	.	.	.	8d\	tu	.	8f\	-de	.
!	!	!	!LO:TX:a:t=P:problem:rozdzielacz słów:global	!	!	!LO:LB:g=original	!	!	!	!	!
.	.	.	4C,</	-ma	.	8e-X\	fe-	.	2e-X\	Ro-	.
16c\LL	.	.	.	.	.	8c\	-lix	.	.	.	.
16B-\JJ	.	.	.	.	.	.	.	.	.	.	.
*	*	*	*	*ij	*	*	*	*	*	*	*
4A\	.	.	8C/	et	.	8e-X\	gau-	.	.	.	.
.	.	.	8C/	tu	.	8c\	-de	.	.	.	.
=31	=31	=31	=31	=31	=31	=31	=31	=31	=31	=31	=31
4B-,<\	-ma	.	8BB-/	fe-	.	2d\	Ro-	.	2f\	-ma	.
.	.	.	8GG/	-lix	.	.	.	.	.	.	.
8E-X/	et	.	8BB-/	gau-	.	.	.	.	.	.	.
8F/	tu	.	8BB-/	-de-	.	.	.	.	.	.	.
!	!	!	!LO:SIC:v:s=2AA-	!	!	!	!	!	!	!	!
8A-X\	fe-	.	2AA/	-Ro-	.	4c,<\	-ma	.	4r	.	.
!LO:SIC:v:t=custos E	!	!	!	!	!	!	!	!	!	!	!
8A-\	-lix	.	.	.	.	.	.	.	.	.	.
!LO:LB:g=original	!	!	!	!	!	!	!	!	!	!	!
8E-X/	gau-	.	.	.	.	8c\	Et	.	8g\	Et	.
8F/	-de	.	.	.	.	8c\	tu	.	8g\	tu	.
=32	=32	=32	=32	=32	=32	=32	=32	=32	=32	=32	=32
!	!	!	!	!	!	!LO:N:acc=#	!	!	!	!	!
2G/	Ro-	.	2GG,</	-ma	.	8Bn\	fe-	.	8d\	fe-	.
.	.	.	.	.	.	8G/	-lix	.	8d\	-lix	.
.	.	.	.	.	.	8B\	gau-	.	8g\	gau-	.
!	!	!	!	!	!	!	!	!	!LO:SIC:v:t=custos g	!	!
.	.	.	.	.	.	8c\	-de	.	8g\	-de	.
!	!	!	!	!	!	!	!	!	!LO:LB:g=original	!	!
4G,</	-ma	.	4.G\	et	.	8B\	Ro-	.	8g\	Ro-	.
.	.	.	.	.	.	8B,<\	-ma	.	8g,<\	-ma	.
!LO:N:acc=#	!	!	!	!	!	!	!	!	!	!	!
8Bn\	et	.	.	.	.	8d\	Et	.	8g\	Et	.
8B\	tu	.	8G\	tu	.	8d\	tu	.	8g\	tu	.
=33	=33	=33	=33	=33	=33	=33	=33	=33	=33	=33	=33
8c\	fe-	.	8c\	fe-	.	8e-X\	fe-	.	8g\	fe-	.
8c\	-lix	.	8c\	-lix	.	8e-\	-lix	.	8g\	-lix	.
!	!	!	!	!	!	!LO:SIC:v:t=custos c	!	!	!	!	!
8A\	gau-	.	8F\	gau-	.	8c\	gau-	.	8f\	gau-	.
!	!	!	!	!	!	!LO:LB:g=original	!	!	!	!	!
8A\	-de	.	8F\	-de	.	8c\	-de	.	8f\	-de	.
!	!	!	!LO:SIC:v:t=custos B	!	!	!	!	!	!	!	!
4B-\	Ro-	.	4B-\	Ro-	.	4d,<\	Ro-	.	4f\	Ro-	.
!	!	!	!LO:LB:g=original	!	!	!	!	!	!	!	!
8B-\	-ma	.	8B-\	-ma	.	8d,<\	-ma	.	8f\	-ma	.
*	*Xij	*	*	*Xij	*	*	*Xij	*	*	*Xij	*
8B-\	quod	.	8E-X\	quod	.	8e-X\	quod	.	8g\	quod	.
=34	=34	=34	=34	=34	=34	=34	=34	=34	=34	=34	=34
4A-X\	San-	.	4F\	San-	.	4c\	San-	.	4f\	San-	.
!	!	!	!	!	!	!LO:N:acc=#	!	!	!	!	!
4G/	-cti	cto-	4G\	-cti	cto-	4Bn\	-cti	cto-	4e-X\	-cti	cto-
4.G/	Tu-	-ru(m)	4.A-X\	Tu-	-ru(m)	4.c\	Tu-	-ru(m)	4.e-\	Tu-	-ru(m)
8F/	-i	o-	8A-\	-i	o-	8d\	-i	o-	8f\	-i	o-
=35	=35	=35	=35	=35	=35	=35	=35	=35	=35	=35	=35
!	!	!	!	!	!	!LO:N:acc=#	!	!	!	!	!
4G/	es	-ru(m)	4G\	es	-ru(m)	4Bn\	es	-ru(m)	4d\	es	-ru(m)
!LO:SIC:v:t=custos B	!	!	!	!	!	!	!	!	!	!	!
8c\	de-	.	8E-X\	de-	.	8G/	de-	.	8e-X\	de-	.
!LO:LB:g=original	!	!	!	!	!	!	!	!	!	!	!
8B-\	-co-	.	8E-\	-co-	.	8G/	-co-	.	8e-\	-co-	.
!	!	!	!	!	!	!	!	!	!LO:SIC:v:t=custos e	!	!
4A\	-ra-	.	4F\	-ra-	.	4A/	-ra-	.	4c/	-ra-	.
!	!	!	!	!	!	!	!	!	!LO:LB:g=original	!	!
4G/	-ta	.	4C/	-ta	.	4c\	-ta	.	4e-X\	-ta	.
=36	=36	=36	=36	=36	=36	=36	=36	=36	=36	=36	=36
2.G/	me-	.	2.GG/	me-	.	2.c\	me-	.	2.d\	me-	.
!	!	!	!	!	!	!LO:N:acc=#	!	!	!	!	!
4G/	-ri-	.	4GG/	-ri-	.	4Bn\	-ri-	.	4d\	-ri-	.
=37	=37	=37	=37	=37	=37	=37-	=37	=37	=37-	=37	=37
1G	-tis	.	1C	-tis	.	1c	-tis	.	1e	-tis	.
=38	=38	=38	=38	=38	=38	=38	=38	=38	=38	=38	=38
8c\	Er-	.	8c\	Er-	.	8e-X\	Er-	.	8g\	Er-	.
8c\	-go	.	8c\	-go	.	8e-\	-go	.	8g\	-go	.
8c\	Sem-	.	8c\	Sem-	.	8e-\	Sem-	.	8g\	Sem-	.
!	!	!	!LO:SIC:v:t=custos G	!	!	!LO:SIC:v:t=custos e	!	!	!	!	!
8c\	-per	.	8c\	-per	.	8e-\	-per	.	8g\	-per	.
!	!	!	!LO:LB:g=original	!	!	!	!	!	!	!	!
8B-\	Vi-	.	8G\	Vi-	.	8e-\	Vi-	.	8g\	Vi-	.
8B-\	-uat	uant	8G\	-uat	vant	8d\	-uat	uant	8g\	-uat	uant
8G/	Sem-	.	8G\	Sem-	.	8B-\	Sem-	.	8d\	Sem-	.
8G/	-per	.	8G\	-per	.	8B-\	-per	.	8d\	-per	.
=39	=39	=39	=39	=39	=39	=39	=39	=39	=39	=39	=39
8G/	Reg-	.	8E-X\	Reg-	.	8B-\	Reg-	.	8e-X\	reg-	.
8G/	-net	nent	8E-\	-net	gnent	8B-\	-net	nent	8e-\	-net	gnent
8G/	Su-	.	8E-\	Su-	.	8B-\	Su-	.	8e-\	Su-	.
!LO:SIC:v:t=custos B	!	!	!	!	!	!	!	!	!LO:SIC:v:t=custos f	!	!
8B-\	-per	.	8E-\	-per	.	8B-\	-per	.	8e-\	-per	.
!LO:LB:g=original	!	!	!	!	!	!	!	!	!LO:PB:g=original	!	!
4B-\	cae-	.	4B-\	cae-	.	4d\	cae-	.	4f\	cae-	.
8B-\	-los	.	8B-\	-los	.	8d\	-los	.	8f\	-los	.
8F/	in	.	8B-\	in	.	8d\	in	.	8d\	in	.
=40	=40	=40	=40	=40	=40	=40	=40	=40	=40	=40	=40
8.c\	glo-	.	8.c\	glo-	.	8.e-X\	glo-	.	8.g\	glo-	.
16c\	-ri-	.	16c\	-ri-	.	16e-\	-ri-	.	16g\	-ri-	.
8B-\	-a	.	8G\	-a	.	8d\	-a	.	8g\	-a	.
8c\	cum	.	8G\	cum	.	8d\	cum	.	8g\	cum	.
8A-X\	San-	.	8A-X\	ſan-	.	8c\	ſan-	.	8e-X\	San-	.
!	!	!	!LO:SIC:v:t=custos E	!	!	!	!	!	!	!	!
8A-\	-ctis	.	8A-\	-ctis	.	8c\	-ctis	.	8e-\	-ctis	.
!	!	!	!LO:LB:g=original	!	!	!	!	!	!	!	!
8G/	in	.	8E-X\	in	.	8B-\	in	.	8e-\	in	.
!	!	!	!	!	!	!LO:SIC:v:t=custos c	!	!	!	!	!
8G/	ae-	.	8E-\	ae-	.	8B-\	ae-	.	8g\	ae-	.
!	!	!	!	!	!	!LO:PB:g=original	!	!	!	!	!
=41	=41	=41	=41	=41	=41	=41	=41	=41	=41	=41	=41
8c\	-ter-	.	8F\	-ter-	.	8A/	-ter-	.	8f\	-ter-	.
8c\	-num	.	8F\	-num	.	8A/	-num	.	8f\	-num	.
(8c\L	re-	.	4C/	re-	.	(8c\L	re-	.	4e-X\	re-	.
8G\J)	.	.	.	.	.	8B-\J)	.	.	.	.	.
!	!	!	!	!	!	!LO:N:acc=#	!	!	!	!	!
4G/	-gnet	gnent	4G\	-gnet	gnent	4Bn\	-gnet	gnent	4d\	-gnet	gnent
4r	.	.	4r	.	.	4r	.	.	4r	.	.
=42	=42	=42	=42	=42	=42	=42	=42	=42	=42	=42	=42
8B-\	Er-	.	8E-X\	Er-	.	8e-X\	Er-	.	8g\	Er-	.
!LO:SIC:v:t=custos B	!	!	!	!	!	!	!	!	!	!	!
8B-\	-go	.	8E-\	-go	.	8e-\	-go	.	8g\	-go	.
!LO:PB:g=original	!	!	!	!	!	!	!	!	!	!	!
8B-\	ſem-	.	8E-\	Sem-	.	8e-\	Sem-	.	8g\	Sem-	.
!	!	!	!	!	!	!	!	!	!LO:SIC:v:t=custos f	!	!
8B-\	-per	.	8E-\	-per	.	8e-\	-per	.	8g\	-per	.
!	!	!	!	!	!	!	!	!	!LO:LB:g=original	!	!
8B-\	Vi-	.	8BB-/	Vi-	.	8d\	Vi-	.	8f\	Vi-	.
8B-\	-uat	uant	8BB-/	-uat	uant	8d\	-uat	.	8f\	-vat	.
8B-\	ſem-	.	8BB-/	Sem-	.	8d\	Sem-	.	8f\	Su-	.
8B-\	-per	.	8BB-/	-per	.	8d\	-per	.	8f\	-per	.
=43	=43	=43	=43	=43	=43	=43	=43	=43	=43	=43	=43
8G/	reg-	.	8C/	reg-	.	8c\	reg-	.	8e-X\	cae-	.
!	!	!	!LO:SIC:v:t=custos C	!	!	!	!	!	!	!	!
8G/	-net	gnent	8C/	-net	nent	8c\	-net	.	8e-\	-los	.
!	!	!	!LO:PB:g=original	!	!	!	!	!	!	!	!
8G/	ſu-	.	8C/	Su-	.	8c\	Su-	.	8e-\	Sem-	.
8G/	-per	.	8C/	-per	.	8c\	-per	.	8e-\	-per	.
8G/	cae-	.	8G\	cae-	.	8c\	cae-	.	8d\	reg-	.
!	!	!	!	!	!	!LO:SIC:v:t=custos B	!	!	!	!	!
8G/	-los	.	8G\	-los	.	8c\	-los	.	8d\	-net	nent
!	!	!	!	!	!	!LO:LB:g=original	!	!	!	!	!
8G/	et	.	8G\	et	.	8B-\	Sem-	.	8d\	et	.
8B-\	à	.	8G\	à	.	8B-\	-per	.	8g\	à	.
=44	=44	=44	=44	=44	=44	=44	=44	=44	=44	=44	=44
8A-X\	De-	.	8A-X\	De-	.	8B-\	reg-	.	8e-X\	De-	.
8A-\	-o	.	8A-\	-o	.	8B-\	-net	gnet	8e-\	-o	.
8G/	no-	.	8E-X\	no-	.	8c\	et	.	8e-\	no-	.
!LO:SIC:v:t=custos c	!	!	!	!	!	!	!	!	!	!	!
8G/	-bis	.	8E-\	-bis	.	8c\	à	.	8g\	-bis	.
!LO:LB:g=original	!	!	!	!	!	!	!	!	!	!	!
8.c\	Ve-	.	8F\	Ve-	.	8B-\	De-	.	8.f\	Ve-	.
.	.	.	8F\	-ni-	.	8B-\	-o	.	.	.	.
!	!	!	!	!	!	!	!	!	!LO:SIC:v:t=custos e-	!	!
16c\	-ni-	.	.	.	.	.	.	.	16f\	-ni-	.
!	!	!	!	!	!	!	!	!	!LO:LB:g=original	!	!
8c\	-am	.	8C/	-am	.	8.A/	Ve-	.	8e-X\	-am	.
8G/	pre-	.	8C/	pre-	.	.	.	.	8e-\	pre-	.
.	.	.	.	.	.	16A/	-ni-	.	.	.	.
=45	=45	=45	=45	=45	=45	=45	=45	=45	=45	=45	=45
2G/	-ce-	cen-	(4F\	-ce-	cen-	(8A\L	-am	.	2d\	-ce-	cen-
.	.	.	.	.	.	8c\J)	.	.	.	.	.
!	!	!	!LO:TX:t=P:problem:mixed beam	!	!	!	!	!	!	!	!
.	.	.	8G\L)	.	.	(8c\L	pre-	.	.	.	.
!	!	!	!	!	!	!LO:N:acc=#	!	!	!	!	!
.	.	.	8GG/J	.	.	8Bn\J)	-ce-	.	.	.	.
2G/	-tur	-tur	2C/	-tur	-tur	2c\	-tur	.	2c/	-tur	-tur
=46	=46	=46	=46	=46	=46	=46	=46	=46	=46	=46	=46
8.c\	in-	.	8.c\	in-	.	8.e-X\	in-	.	8.g\	in-	.
16c\	-te-	.	16c\	-te-	.	16e-\	-te-	.	16g\	-te-	.
!	!	!	!LO:SIC:v:t=custos G	!	!	!	!	!	!	!	!
8c\	-rim	.	8c\	-rim	.	8e-\	-rim	.	8g\	-rim	.
!	!	!	!LO:LB:g=original	!	!	!	!	!	!	!	!
8r	.	.	8r	.	.	8r	.	.	8r	.	.
8.B-\	po-	.	8.G\	po-	.	8.d\	po-	.	8.g\	Po-	.
16B-\	-pu-	.	16G\	-pu-	.	16d\	-pu-	.	16g\	-pu-	.
!	!	!	!	!	!	!	!	!	!	!	!
8B-\	-li	.	8G\	-li	.	8d\	-li	.	8g\	-li	.
!	!	!	!	!	!	!LO:SIC:v:t=custos c	!	!	!	!	!
8r	.	.	8r	.	.	8r	.	.	8r	.	.
!	!	!	!	!	!	!LO:LB:g=original	!	!	!	!	!
=47	=47	=47	=47	=47	=47	=47	=47	=47	=47	=47	=47
8.A-X\	plau-	.	8.A-X\	plau-	.	8.c\	plau-	.	8.e-X\	plau-	.
16A-\	-di-	.	16A-\	-di-	.	16c\	-di-	.	16e-\	-di-	.
8A-\	-te	.	8A-\	-te	.	8c\	-te	.	8e-\	-te	.
!LO:SIC:v:t=custos G	!	!	!	!	!	!	!	!	!	!	!
8r	.	.	8r	.	.	8r	.	.	8r	.	.
!LO:LB:g=original	!	!	!	!	!	!	!	!	!	!	!
8.G/	can-	.	8.E-X\	can-	.	8.B-\	can-	.	8.e-\	can-	.
16G/	-ti-	.	16E-\	-ti-	.	16B-\	-ti-	.	16e-\	-ti-	.
!	!	!	!	!	!	!	!	!	!LO:SIC:v:t=custos f	!	!
8G/	-cis	.	8E-\	-cis	.	8B-\	-cis	.	8e-\	-cis	.
!	!	!	!	!	!	!	!	!	!LO:LB:g=original	!	!
8r	.	.	8r	.	.	8r	.	.	8r	.	.
=48	=48	=48	=48	=48	=48	=48	=48	=48	=48	=48	=48
8.c\	di-	.	8.F\	di-	.	8.A-X/	di-	.	8.f\	di-	.
16c\	-ci-	.	16F\	-ci-	.	16A-/	-ci-	.	16f\	-ci-	.
8c\	-te	.	8F\	-te	.	8A-/	-te	.	8f\	-te	.
8r	.	.	8r	.	.	8r	.	.	8r	.	.
!	!	!	!LO:SIC:v:t=custos BB	!	!	!	!	!	!	!	!
4e-X\	o	.	4E-\	o	.	4B-\	o	.	4g\	o	.
!	!	!	!LO:LB:g=original	!	!	!	!	!	!	!	!
8r	.	.	8r	.	.	8r	.	.	8r	.	.
8d\	o	.	8BB-/	o	.	8B-\	o	.	8f\	o	.
=49	=49	=49	=49	=49	=49	=49	=49	=49	=49	=49	=49
8e-X\	cae-	.	8C/	cae-	.	8G/	cae-	.	8e-X\	cae-	.
8d\	-li	.	8GG/	-li	.	8B-\	-li	.	8g\	-li	.
4d\	ci-	.	4D/	ci-	.	4A/	ci-	.	4f#X\	ci-	.
4d\	-uis	ues	4GG/	-uis	ues	4G/	-uis	ues	4g\	-uis	ves
8r	.	.	8r	.	.	8r	.	.	8r	.	.
8B-\	o	.	8G\	o	.	8B-\	o	.	8g\	o	.
=50	=50	=50	=50	=50	=50	=50	=50	=50	=50	=50	=50
8A-X\	cae-	.	8A-X\	cae-	.	8c\	cae-	.	8e-X\	cae-	.
!LO:SIC:v:t=custos F	!	!	!	!	!	!	!	!	!	!	!
8G/	-li	.	8E-X\	-li	.	8B-\	-li	.	8e-\	-li	.
!LO:LB:g=original	!	!	!	!	!	!	!	!	!	!	!
4F/	de-	.	4BB-/	de-	.	4B-\	de-	.	4d\	de-	.
!	!	!	!	!	!	!LO:SIC:v:t=custos e-	!	!	!	!	!
4G/	-cus	cora	4E-X\	-cus	cora	4B-\	-cus	cora	4e-X\	-cus	cora
!	!	!	!	!	!	!LO:LB:g=original	!	!	!	!	!
8r	.	.	8r	.	.	8r	.	.	8r	.	.
!	!	!	!	!	!	!	!	!	!LO:SIC:v:t=custos f	!	!
8B-\	o	.	8E-\	o	.	8e-X\	o	.	8f\	o	.
!	!	!	!	!	!	!	!	!	!LO:LB:g=original	!	!
=51	=51	=51	=51	=51	=51	=51	=51	=51	=51	=51	=51
8A-X\	cae-	.	8F\	cae-	.	8c\	cae-	.	8f\	cae-	.
8G/	-li	.	8C/	-li	.	8d\	-li	.	8e-X\	-li	.
!	!	!	!	!	!	!LO:N:acc=#	!	!	!	!	!
4G/	de-	.	4GG/	de-	.	4Bn\	de-	.	4d\	de-	.
!	!	!	!LO:SIC:v:t=custos E	!	!	!	!	!	!	!	!
4G/	-cus	cora	4C/	-cus	cora	4c\	-cu(s)	cora	4c/	-cus	cora
!	!	!	!LO:LB:g=original	!	!	!	!	!	!	!	!
8r	.	.	8r	.	.	8r	.	.	8r	.	.
*	*ij	*	*	*ij	*	*	*ij	*	*	*ij	*
8B-\	o	.	8E-\	o	.	8e-X\	o	.	8f\	o	.
=52	=52	=52	=52	=52	=52	=52	=52	=52	=52	=52	=52
8A-X\	cae-	.	8F\	cae-	.	8c\	cae-	.	8f\	cae-	.
8G/	-li	.	8C/	-li	.	8c\	-li	.	8e\	-li	.
!	!	!	!	!	!	!LO:N:acc=#	!	!	!	!	!
4G/	de-	.	4GG/	de-	.	4Bn\	de-	.	4d\	de-	.
4G/	-cus	.	4C/	-cus	.	4c\	-cus	.	4c/	-cus	.
*	*Xij	*	*	*Xij	*	*	*Xij	*	*	*Xij	*
!LO:TX:b:t=Exultate ut Supra \nallegro ſi placet.	!	!	!LO:TX:b:t=Exultate ut Supra \nallegro ſi placet	!	!	!LO:TX:b:t=Exultate ut Supra \nallegro ſi placet.	!	!	!LO:TX:b:t=Exultate ut Supra \nallegro. ſi placet	!	!
4r	.	.	4r	.	.	4r	.	.	4r	.	.
==	==	==	==	==	==	==	==	==	==	==	==
*-	*-	*-	*-	*-	*-	*-	*-	*-	*-	*-	*-
!!!system-decoration: [s1,s2,s3,s4]
!!!RDF**kern: < = below
!!!RDF**kern: l = terminal long
!!!ENC: Tomasz Grochalski
!!!END: 2021-03-20
!!!ENC: Marta Lawrence
!!!END: 2021-03-27
